;FLAVOR:Marlin
;TIME:4125
;Filament used: 2.39852m
;Layer height: 0.1
;MINX:198.15
;MINY:197.897
;MINZ:0.3
;MAXX:251.85
;MAXY:252.103
;MAXZ:13.8
;Generated with Cura_SteamEngine 4.1.0
M140 S60
M105
M190 S60
M104 S200
M105
M109 S200
M82 ;absolute extrusion mode
G28 ;Home
G0 Z15.0 F6000 ;Move the platform down 15mm
;Prime the extruder
G92 E0
G0 F200 E3
G92 E0
G92 E0
G92 E0
G0 F1500 E-6.5
;LAYER_COUNT:136
;LAYER:0
M107
G0 F3600 X205.818 Y205.847 Z0.3
;TYPE:SKIRT
G0 F1500 E0
G0 F1800 X206.118 Y205.55 E0.02106
G0 X206.663 Y205.039 E0.05833
G0 X206.94 Y204.792 E0.07685
G0 X207.737 Y204.113 E0.12909
G0 X208.363 Y203.632 E0.16847
G0 X208.894 Y203.296 E0.19982
G0 X214.253 Y200.201 E0.50857
G0 X214.956 Y199.841 E0.54797
G0 X215.404 Y199.656 E0.57215
G0 X216.025 Y199.422 E0.60526
G0 X216.485 Y199.265 E0.62951
G0 X217.569 Y198.932 E0.68609
G0 X217.945 Y198.827 E0.70556
G0 X218.656 Y198.647 E0.74215
G0 X219.022 Y198.563 E0.76089
G0 X220.311 Y198.302 E0.8265
G0 X220.846 Y198.213 E0.85356
G0 X222.09 Y198.05 E0.91615
G0 X222.58 Y198.002 E0.94072
G0 X223.801 Y197.92 E1.00177
G0 X224.292 Y197.902 E1.02628
G0 X225.502 Y197.897 E1.08665
G0 X225.992 Y197.91 E1.11111
G0 X227.166 Y197.979 E1.16978
G0 X227.634 Y198.021 E1.19322
G0 X228.796 Y198.16 E1.25161
G0 X229.261 Y198.23 E1.27507
G0 X230.409 Y198.438 E1.33327
G0 X230.868 Y198.536 E1.35669
G0 X231.99 Y198.81 E1.41431
G0 X232.406 Y198.923 E1.43582
G0 X233.124 Y199.141 E1.47325
G0 X233.461 Y199.252 E1.49095
G0 X234.447 Y199.601 E1.54314
G0 X235.177 Y199.902 E1.58253
G0 X235.743 Y200.199 E1.61442
G0 X241.103 Y203.293 E1.92319
G0 X241.766 Y203.722 E1.96258
G0 X242.15 Y204.016 E1.98671
G0 X242.661 Y204.435 E2.01968
G0 X243.031 Y204.759 E2.04422
G0 X243.862 Y205.533 E2.10087
G0 X244.14 Y205.806 E2.12031
G0 X244.652 Y206.333 E2.15697
G0 X244.909 Y206.61 E2.17582
G0 X245.779 Y207.597 E2.24146
G0 X246.107 Y207.995 E2.26719
G0 X246.872 Y208.988 E2.32973
G0 X247.17 Y209.402 E2.35518
G0 X247.853 Y210.42 E2.41634
G0 X248.118 Y210.843 E2.44124
G0 X248.726 Y211.888 E2.50156
G0 X248.955 Y212.312 E2.5256
G0 X249.483 Y213.364 E2.58432
G0 X249.682 Y213.791 E2.60783
G0 X250.143 Y214.867 E2.66623
G0 X250.315 Y215.305 E2.6897
G0 X250.709 Y216.403 E2.7479
G0 X250.854 Y216.85 E2.77135
G0 X251.178 Y217.959 E2.82899
G0 X251.289 Y218.384 E2.8509
G0 X251.458 Y219.113 E2.88824
G0 X251.53 Y219.455 E2.90568
G0 X251.72 Y220.481 E2.95773
G0 X251.824 Y221.263 E2.99709
G0 X251.85 Y221.901 E3.02895
G0 X251.85 Y228.095 E3.33797
G0 X251.81 Y228.884 E3.37738
G0 X251.749 Y229.345 E3.40058
G0 X251.643 Y229.998 E3.43359
G0 X251.546 Y230.495 E3.45885
G0 X251.292 Y231.6 E3.51542
G0 X251.192 Y231.989 E3.53545
G0 X250.991 Y232.695 E3.57208
G0 X250.882 Y233.045 E3.59036
G0 X250.463 Y234.291 E3.65595
G0 X250.277 Y234.787 E3.68238
G0 X249.797 Y235.947 E3.74501
G0 X249.592 Y236.402 E3.76991
G0 X249.052 Y237.502 E3.83104
G0 X248.822 Y237.935 E3.8555
G0 X248.222 Y238.985 E3.91584
G0 X247.968 Y239.399 E3.94007
G0 X247.322 Y240.382 E3.99875
G0 X247.043 Y240.779 E4.02296
G0 X246.34 Y241.716 E4.0814
G0 X246.05 Y242.08 E4.10462
G0 X245.296 Y242.969 E4.16278
G0 X244.982 Y243.317 E4.18616
G0 X244.182 Y244.153 E4.24389
G0 X243.882 Y244.45 E4.26495
G0 X243.337 Y244.961 E4.30222
G0 X243.06 Y245.208 E4.32074
G0 X242.263 Y245.887 E4.37298
G0 X241.637 Y246.368 E4.41236
G0 X241.106 Y246.704 E4.44371
G0 X235.747 Y249.799 E4.75246
G0 X235.044 Y250.159 E4.79186
G0 X234.596 Y250.344 E4.81604
G0 X233.975 Y250.578 E4.84915
G0 X233.515 Y250.735 E4.8734
G0 X232.431 Y251.068 E4.92998
G0 X232.055 Y251.173 E4.94945
G0 X231.344 Y251.353 E4.98604
G0 X230.978 Y251.437 E5.00478
G0 X229.689 Y251.698 E5.07039
G0 X229.154 Y251.787 E5.09745
G0 X227.91 Y251.95 E5.16004
G0 X227.42 Y251.998 E5.18461
G0 X226.199 Y252.08 E5.24566
G0 X225.708 Y252.098 E5.27017
G0 X224.498 Y252.103 E5.33054
G0 X224.008 Y252.09 E5.355
G0 X222.834 Y252.021 E5.41367
G0 X222.366 Y251.979 E5.43711
G0 X221.204 Y251.84 E5.4955
G0 X220.739 Y251.77 E5.51896
G0 X219.591 Y251.562 E5.57716
G0 X219.132 Y251.464 E5.60058
G0 X218.01 Y251.19 E5.6582
G0 X217.594 Y251.077 E5.67971
G0 X216.876 Y250.859 E5.71714
G0 X216.539 Y250.748 E5.73484
G0 X215.553 Y250.399 E5.78703
G0 X214.823 Y250.098 E5.82642
G0 X214.256 Y249.801 E5.85835
G0 X208.895 Y246.706 E6.16719
G0 X208.232 Y246.277 E6.20659
G0 X207.851 Y245.984 E6.23056
G0 X207.341 Y245.566 E6.26346
G0 X206.969 Y245.241 E6.28811
G0 X206.138 Y244.467 E6.34476
G0 X205.86 Y244.194 E6.3642
G0 X205.348 Y243.667 E6.40086
G0 X205.091 Y243.39 E6.41971
G0 X204.219 Y242.401 E6.48549
G0 X203.89 Y242.002 E6.51129
G0 X203.126 Y241.01 E6.57376
G0 X202.828 Y240.595 E6.59925
G0 X202.146 Y239.578 E6.66034
G0 X201.883 Y239.159 E6.68502
G0 X201.274 Y238.113 E6.74541
G0 X201.042 Y237.684 E6.76974
G0 X200.515 Y236.633 E6.8284
G0 X200.318 Y236.209 E6.85172
G0 X199.857 Y235.133 E6.91012
G0 X199.685 Y234.693 E6.93369
G0 X199.291 Y233.594 E6.99194
G0 X199.146 Y233.149 E7.01529
G0 X198.822 Y232.04 E7.07293
G0 X198.711 Y231.617 E7.09475
G0 X198.542 Y230.889 E7.13203
G0 X198.47 Y230.545 E7.14957
G0 X198.28 Y229.519 E7.20163
G0 X198.176 Y228.737 E7.24098
G0 X198.15 Y228.099 E7.27284
G0 X198.15 Y221.905 E7.58186
G0 X198.19 Y221.116 E7.62127
G0 X198.251 Y220.655 E7.64447
G0 X198.357 Y220.002 E7.67748
G0 X198.454 Y219.505 E7.70274
G0 X198.708 Y218.4 E7.75931
G0 X198.808 Y218.011 E7.77935
G0 X199.009 Y217.305 E7.81597
G0 X199.118 Y216.955 E7.83426
G0 X199.537 Y215.709 E7.89984
G0 X199.723 Y215.213 E7.92627
G0 X200.203 Y214.053 E7.9889
G0 X200.408 Y213.598 E8.0138
G0 X200.948 Y212.498 E8.07493
G0 X201.178 Y212.065 E8.0994
G0 X201.778 Y211.015 E8.15973
G0 X202.032 Y210.601 E8.18396
G0 X202.678 Y209.618 E8.24265
G0 X202.957 Y209.221 E8.26685
G0 X203.66 Y208.284 E8.3253
G0 X203.95 Y207.92 E8.34851
G0 X204.704 Y207.031 E8.40667
G0 X205.018 Y206.683 E8.43006
G0 X205.818 Y205.847 E8.48778
G0 F3600 X206.107 Y206.124
G0 F1800 X206.392 Y205.842 E8.50779
G0 X206.937 Y205.331 E8.54506
G0 X207.199 Y205.096 E8.56262
G0 X207.996 Y204.417 E8.61485
G0 X208.607 Y203.949 E8.65325
G0 X209.094 Y203.642 E8.68197
G0 X214.453 Y200.547 E8.99072
G0 X215.138 Y200.197 E9.0291
G0 X215.545 Y200.03 E9.05105
G0 X216.166 Y199.796 E9.08415
G0 X216.602 Y199.647 E9.10714
G0 X217.686 Y199.314 E9.16372
G0 X218.043 Y199.214 E9.18221
G0 X218.754 Y199.034 E9.2188
G0 X219.101 Y198.955 E9.23656
G0 X220.39 Y198.694 E9.30217
G0 X220.898 Y198.61 E9.32786
G0 X222.142 Y198.447 E9.39045
G0 X222.607 Y198.401 E9.41377
G0 X223.828 Y198.319 E9.47482
G0 X224.293 Y198.302 E9.49803
G0 X225.503 Y198.297 E9.5584
G0 X225.968 Y198.31 E9.58161
G0 X227.142 Y198.379 E9.64028
G0 X227.587 Y198.418 E9.66257
G0 X228.749 Y198.557 E9.72095
G0 X229.189 Y198.624 E9.74316
G0 X230.337 Y198.832 E9.80136
G0 X230.774 Y198.924 E9.82364
G0 X231.896 Y199.198 E9.88127
G0 X232.29 Y199.306 E9.90165
G0 X233.008 Y199.524 E9.93908
G0 X233.327 Y199.629 E9.95584
G0 X234.313 Y199.978 E10.00802
G0 X235.024 Y200.272 E10.04641
G0 X235.543 Y200.545 E10.07566
G0 X240.903 Y203.639 E10.38443
G0 X241.549 Y204.058 E10.42284
G0 X241.896 Y204.326 E10.44472
G0 X242.407 Y204.745 E10.47769
G0 X242.759 Y205.052 E10.50099
G0 X243.59 Y205.826 E10.55764
G0 X243.854 Y206.084 E10.57606
G0 X244.366 Y206.611 E10.61272
G0 X244.609 Y206.875 E10.63062
G0 X245.479 Y207.862 E10.69626
G0 X245.79 Y208.239 E10.72064
G0 X246.555 Y209.232 E10.78318
G0 X246.838 Y209.625 E10.80734
G0 X247.521 Y210.643 E10.8685
G0 X247.772 Y211.045 E10.89214
G0 X248.38 Y212.09 E10.95246
G0 X248.598 Y212.492 E10.97528
G0 X249.126 Y213.544 E11.034
G0 X249.314 Y213.949 E11.05628
G0 X249.775 Y215.025 E11.11468
G0 X249.938 Y215.44 E11.13692
G0 X250.332 Y216.538 E11.19512
G0 X250.47 Y216.962 E11.21737
G0 X250.794 Y218.071 E11.27501
G0 X250.9 Y218.475 E11.29585
G0 X251.069 Y219.204 E11.33318
G0 X251.136 Y219.528 E11.34969
G0 X251.326 Y220.554 E11.40175
G0 X251.427 Y221.316 E11.44009
G0 X251.45 Y221.901 E11.4693
G0 X251.45 Y228.095 E11.77832
G0 X251.41 Y228.863 E11.81669
G0 X251.354 Y229.281 E11.83773
G0 X251.248 Y229.934 E11.87074
G0 X251.156 Y230.406 E11.89473
G0 X250.902 Y231.511 E11.95129
G0 X250.807 Y231.879 E11.97026
G0 X250.606 Y232.585 E12.00688
G0 X250.503 Y232.918 E12.02427
G0 X250.084 Y234.164 E12.08985
G0 X249.908 Y234.634 E12.11489
G0 X249.428 Y235.794 E12.17752
G0 X249.233 Y236.226 E12.20117
G0 X248.693 Y237.326 E12.2623
G0 X248.475 Y237.736 E12.28547
G0 X247.875 Y238.786 E12.3458
G0 X247.634 Y239.179 E12.3688
G0 X246.988 Y240.162 E12.42749
G0 X246.723 Y240.539 E12.45048
G0 X246.02 Y241.476 E12.50892
G0 X245.745 Y241.822 E12.53097
G0 X244.991 Y242.711 E12.58913
G0 X244.693 Y243.04 E12.61127
G0 X243.893 Y243.876 E12.669
G0 X243.608 Y244.158 E12.689
G0 X243.063 Y244.669 E12.72628
G0 X242.801 Y244.904 E12.74384
G0 X242.004 Y245.583 E12.79607
G0 X241.393 Y246.051 E12.83447
G0 X240.906 Y246.358 E12.86319
G0 X235.547 Y249.453 E13.17194
G0 X234.862 Y249.803 E13.21031
G0 X234.455 Y249.97 E13.23226
G0 X233.834 Y250.204 E13.26537
G0 X233.398 Y250.353 E13.28836
G0 X232.314 Y250.686 E13.34493
G0 X231.957 Y250.786 E13.36343
G0 X231.246 Y250.966 E13.40002
G0 X230.899 Y251.045 E13.41778
G0 X229.61 Y251.306 E13.48339
G0 X229.102 Y251.39 E13.50908
G0 X227.858 Y251.553 E13.57167
G0 X227.393 Y251.599 E13.59498
G0 X226.172 Y251.681 E13.65604
G0 X225.707 Y251.698 E13.67925
G0 X224.497 Y251.703 E13.73962
G0 X224.032 Y251.69 E13.76283
G0 X222.858 Y251.621 E13.8215
G0 X222.413 Y251.582 E13.84379
G0 X221.251 Y251.443 E13.90217
G0 X220.811 Y251.376 E13.92438
G0 X219.663 Y251.168 E13.98258
G0 X219.226 Y251.076 E14.00486
G0 X218.104 Y250.802 E14.06248
G0 X217.71 Y250.694 E14.08287
G0 X216.992 Y250.476 E14.1203
G0 X216.673 Y250.371 E14.13706
G0 X215.687 Y250.022 E14.18924
G0 X214.976 Y249.728 E14.22762
G0 X214.456 Y249.455 E14.25692
G0 X209.095 Y246.36 E14.56576
G0 X208.45 Y245.941 E14.60413
G0 X208.104 Y245.674 E14.62593
G0 X207.594 Y245.256 E14.65883
G0 X207.241 Y244.948 E14.68221
G0 X206.41 Y244.174 E14.73886
G0 X206.146 Y243.916 E14.75728
G0 X205.634 Y243.389 E14.79394
G0 X205.391 Y243.126 E14.8118
G0 X204.519 Y242.137 E14.87758
G0 X204.207 Y241.758 E14.90207
G0 X203.443 Y240.766 E14.96454
G0 X203.16 Y240.373 E14.9887
G0 X202.478 Y239.356 E15.04979
G0 X202.229 Y238.957 E15.07326
G0 X201.62 Y237.911 E15.13364
G0 X201.4 Y237.505 E15.15668
G0 X200.873 Y236.454 E15.21534
G0 X200.686 Y236.051 E15.2375
G0 X200.225 Y234.975 E15.2959
G0 X200.061 Y234.558 E15.31826
G0 X199.667 Y233.459 E15.37651
G0 X199.53 Y233.037 E15.39864
G0 X199.206 Y231.928 E15.45628
G0 X199.101 Y231.526 E15.47701
G0 X198.932 Y230.798 E15.5143
G0 X198.864 Y230.472 E15.53091
G0 X198.674 Y229.446 E15.58297
G0 X198.573 Y228.684 E15.62132
G0 X198.55 Y228.099 E15.65053
G0 X198.55 Y221.905 E15.95955
G0 X198.59 Y221.137 E15.99791
G0 X198.646 Y220.719 E16.01895
G0 X198.752 Y220.066 E16.05196
G0 X198.844 Y219.594 E16.07595
G0 X199.098 Y218.489 E16.13252
G0 X199.193 Y218.121 E16.15148
G0 X199.394 Y217.415 E16.1881
G0 X199.497 Y217.082 E16.20549
G0 X199.916 Y215.836 E16.27107
G0 X200.092 Y215.366 E16.29611
G0 X200.572 Y214.206 E16.35874
G0 X200.767 Y213.774 E16.38239
G0 X201.307 Y212.674 E16.44353
G0 X201.525 Y212.264 E16.46669
G0 X202.125 Y211.214 E16.52703
G0 X202.366 Y210.821 E16.55003
G0 X203.012 Y209.838 E16.60871
G0 X203.277 Y209.461 E16.6317
G0 X203.98 Y208.524 E16.69014
G0 X204.255 Y208.178 E16.71219
G0 X205.009 Y207.289 E16.77035
G0 X205.307 Y206.96 E16.7925
G0 X206.107 Y206.124 E16.85022
G0 F3600 X206.396 Y206.4
G0 F1800 X206.665 Y206.134 E16.8691
G0 X207.21 Y205.623 E16.90637
G0 X207.458 Y205.401 E16.92298
G0 X208.255 Y204.722 E16.97521
G0 X208.85 Y204.268 E17.01255
G0 X209.294 Y203.988 E17.03874
G0 X214.653 Y200.893 E17.34749
G0 X215.32 Y200.554 E17.38481
G0 X215.686 Y200.405 E17.40453
G0 X216.307 Y200.171 E17.43764
G0 X216.719 Y200.03 E17.45936
G0 X217.803 Y199.697 E17.51594
G0 X218.141 Y199.602 E17.53345
G0 X218.852 Y199.422 E17.57005
G0 X219.181 Y199.347 E17.58688
G0 X220.47 Y199.086 E17.65249
G0 X220.95 Y199.006 E17.67677
G0 X222.194 Y198.843 E17.73937
G0 X222.634 Y198.8 E17.76142
G0 X223.855 Y198.718 E17.82247
G0 X224.295 Y198.702 E17.84444
G0 X225.505 Y198.697 E17.90481
G0 X225.945 Y198.709 E17.92677
G0 X227.119 Y198.778 E17.98544
G0 X227.539 Y198.816 E18.00648
G0 X228.701 Y198.955 E18.06487
G0 X229.118 Y199.017 E18.0859
G0 X230.266 Y199.225 E18.1441
G0 X230.679 Y199.313 E18.16517
G0 X231.801 Y199.587 E18.22279
G0 X232.174 Y199.689 E18.24209
G0 X232.892 Y199.907 E18.27952
G0 X233.194 Y200.006 E18.29538
G0 X234.18 Y200.355 E18.34756
G0 X234.871 Y200.642 E18.38489
G0 X235.343 Y200.892 E18.41154
G0 X240.703 Y203.986 E18.7203
G0 X241.33 Y204.394 E18.75762
G0 X241.642 Y204.635 E18.77729
G0 X242.153 Y205.054 E18.81026
G0 X242.486 Y205.345 E18.83232
G0 X243.317 Y206.119 E18.88898
G0 X243.567 Y206.363 E18.90641
G0 X244.079 Y206.89 E18.94307
G0 X244.309 Y207.139 E18.95998
G0 X245.179 Y208.126 E19.02562
G0 X245.473 Y208.483 E19.04869
G0 X246.238 Y209.476 E19.11123
G0 X246.506 Y209.848 E19.1341
G0 X247.189 Y210.866 E19.19526
G0 X247.426 Y211.246 E19.21761
G0 X248.034 Y212.291 E19.27792
G0 X248.24 Y212.671 E19.29949
G0 X248.768 Y213.723 E19.35821
G0 X248.946 Y214.106 E19.37928
G0 X249.407 Y215.182 E19.43768
G0 X249.562 Y215.575 E19.45876
G0 X249.956 Y216.673 E19.51696
G0 X250.086 Y217.074 E19.53799
G0 X250.41 Y218.183 E19.59563
G0 X250.51 Y218.565 E19.61533
G0 X250.679 Y219.294 E19.65267
G0 X250.743 Y219.6 E19.66826
G0 X250.933 Y220.626 E19.72032
G0 X251.03 Y221.368 E19.75765
G0 X251.05 Y221.901 E19.78426
G0 X251.05 Y228.095 E20.09328
G0 X251.01 Y228.842 E20.13061
G0 X250.96 Y229.217 E20.14948
G0 X250.854 Y229.87 E20.18249
G0 X250.766 Y230.316 E20.20517
G0 X250.512 Y231.421 E20.26173
G0 X250.422 Y231.77 E20.27971
G0 X250.221 Y232.476 E20.31634
G0 X250.124 Y232.79 E20.33273
G0 X249.705 Y234.036 E20.39831
G0 X249.538 Y234.481 E20.42203
G0 X249.058 Y235.641 E20.48466
G0 X248.874 Y236.05 E20.50703
G0 X248.334 Y237.15 E20.56817
G0 X248.128 Y237.538 E20.59009
G0 X247.528 Y238.588 E20.65042
G0 X247.3 Y238.959 E20.67215
G0 X246.654 Y239.942 E20.73083
G0 X246.403 Y240.299 E20.7526
G0 X245.7 Y241.236 E20.81104
G0 X245.439 Y241.563 E20.83192
G0 X244.685 Y242.452 E20.89007
G0 X244.404 Y242.764 E20.91102
G0 X243.604 Y243.6 E20.96875
G0 X243.335 Y243.866 E20.98762
G0 X242.79 Y244.377 E21.0249
G0 X242.542 Y244.599 E21.0415
G0 X241.745 Y245.278 E21.09374
G0 X241.15 Y245.732 E21.13108
G0 X240.706 Y246.012 E21.15727
G0 X235.347 Y249.107 E21.46601
G0 X234.68 Y249.446 E21.50334
G0 X234.314 Y249.595 E21.52306
G0 X233.693 Y249.829 E21.55616
G0 X233.281 Y249.97 E21.57789
G0 X232.197 Y250.303 E21.63446
G0 X231.859 Y250.398 E21.65198
G0 X231.148 Y250.578 E21.68857
G0 X230.819 Y250.653 E21.70541
G0 X229.53 Y250.914 E21.77102
G0 X229.05 Y250.994 E21.7953
G0 X227.806 Y251.157 E21.85789
G0 X227.366 Y251.2 E21.87995
G0 X226.145 Y251.282 E21.941
G0 X225.705 Y251.298 E21.96297
G0 X224.495 Y251.303 E22.02334
G0 X224.055 Y251.291 E22.04529
G0 X222.881 Y251.222 E22.10397
G0 X222.461 Y251.184 E22.12501
G0 X221.299 Y251.045 E22.18339
G0 X220.882 Y250.983 E22.20443
G0 X219.734 Y250.775 E22.26263
G0 X219.321 Y250.687 E22.2837
G0 X218.199 Y250.413 E22.34132
G0 X217.826 Y250.311 E22.36061
G0 X217.108 Y250.093 E22.39805
G0 X216.806 Y249.994 E22.4139
G0 X215.82 Y249.645 E22.46609
G0 X215.129 Y249.358 E22.50342
G0 X214.656 Y249.108 E22.53011
G0 X209.295 Y246.013 E22.83894
G0 X208.668 Y245.605 E22.87626
G0 X208.358 Y245.365 E22.89582
G0 X207.848 Y244.947 E22.92872
G0 X207.514 Y244.655 E22.95085
G0 X206.683 Y243.881 E23.00751
G0 X206.433 Y243.637 E23.02494
G0 X205.921 Y243.11 E23.0616
G0 X205.691 Y242.861 E23.07851
G0 X204.819 Y241.872 E23.14429
G0 X204.524 Y241.514 E23.16743
G0 X203.76 Y240.522 E23.2299
G0 X203.492 Y240.15 E23.25277
G0 X202.81 Y239.133 E23.31386
G0 X202.575 Y238.756 E23.33603
G0 X201.966 Y237.71 E23.39641
G0 X201.758 Y237.326 E23.4182
G0 X201.231 Y236.275 E23.47686
G0 X201.054 Y235.894 E23.49782
G0 X200.593 Y234.818 E23.55622
G0 X200.438 Y234.423 E23.57739
G0 X200.044 Y233.324 E23.63563
G0 X199.914 Y232.925 E23.65657
G0 X199.59 Y231.816 E23.71421
G0 X199.49 Y231.436 E23.73382
